svg/basket_off_outline.svg

<svg xmlns="http://www.w3.org/2000/svg" viewBox="0 0 24 24"><path d="M2.39 1.73 1.11 3l5.81 5.81-.13.19H2c-.55 0-1 .45-1 1 0 .09 0 .18.04.27l2.54 9.27c.23.84 1 1.46 1.92 1.46h13c.18 0 .36-.04.53-.08l1.81 1.81 1.27-1.27zM5.5 19l-2.19-8h5.8l2.15 2.15C10.5 13.44 10 14.16 10 15c0 1.1.9 2 2 2 .84 0 1.56-.5 1.85-1.26L17.11 19zM23 10l-.03.27-2.04 7.46-1.63-1.63 1.4-5.1h-6.5l-2-2h2.6L12 4.8l-1.6 2.4-1.44-1.44 2.21-3.31a.997.997 0 0 1 1.66-.01L17.21 9H22c.55 0 1 .45 1 1"/></svg>

<?xml version="1.0" encoding="UTF-8"?><!DOCTYPE svg PUBLIC "-//W3C//DTD SVG 1.1//EN" "http://www.w3.org/Graphics/SVG/1.1/DTD/svg11.dtd"><svg xmlns="http://www.w3.org/2000/svg" xmlns:xlink="http://www.w3.org/1999/xlink" version="1.1" id="mdi-basket-off-outline" width="24" height="24" viewBox="0 0 24 24"><path d="M2.39 1.73L1.11 3L6.92 8.81L6.79 9H2C1.45 9 1 9.45 1 10C1 10.09 1 10.18 1.04 10.27L3.58 19.54C3.81 20.38 4.58 21 5.5 21H18.5C18.68 21 18.86 20.96 19.03 20.92L20.84 22.73L22.11 21.46L2.39 1.73M5.5 19L3.31 11H9.11L11.26 13.15C10.5 13.44 10 14.16 10 15C10 16.1 10.9 17 12 17C12.84 17 13.56 16.5 13.85 15.74L17.11 19H5.5M23 10L22.97 10.27L20.93 17.73L19.3 16.1L20.7 11H14.2L12.2 9H14.8L12 4.8L10.4 7.2L8.96 5.76L11.17 2.45C11.36 2.16 11.68 2 12 2S12.64 2.16 12.83 2.44L17.21 9H22C22.55 9 23 9.45 23 10Z" /></svg>
